public/images/hashed/0813edd3dff78300f60c75e68a33b74f.svg

<?xml version="1.0" encoding="UTF-8"?>
<svg width="80px" height="80px" viewBox="0 0 80 80" version="1.1" xmlns="http://www.w3.org/2000/svg" xmlns:xlink="http://www.w3.org/1999/xlink">
    <!-- Generator: Sketch 64 (93537) - https://sketch.com -->
    <title>Icon-Architecture/64/Arch_AWS-Tools-and-SDK_64</title>
    <desc>Created with Sketch.</desc>
    <defs>
        <linearGradient x1="0%" y1="100%" x2="100%" y2="0%" id="linearGradient-1">
            <stop stop-color="#2E27AD" offset="0%"></stop>
            <stop stop-color="#527FFF" offset="100%"></stop>
        </linearGradient>
    </defs>
    <g id="Icon-Architecture/64/Arch_AWS-Tools-and-SDK_64" stroke="none" stroke-width="1" fill="none" fill-rule="evenodd">
        <g id="Icon-Architecture-BG/64/Developer-Tools" fill="url(#linearGradient-1)">
            <rect id="Rectangle" x="0" y="0" width="80" height="80"></rect>
        </g>
        <path d="M62,53.4165392 L41,65.2865392 L41,56.9995392 L39,56.9995392 L39,65.2865392 L18,53.4165392 L18,27.8045392 L24.47,31.8485392 L25.53,30.1515392 L18.971,26.0525392 L40.479,14.1485392 L60.972,25.9835392 L53.515,30.1255392 L54.485,31.8745392 L62,27.6995392 L62,53.4165392 Z M63.5,25.1335392 L40.989,12.1335392 C40.687,11.9585392 40.312,11.9555392 40.005,12.1245392 L16.516,25.1245392 C16.197,25.3015392 16,25.6365392 16,25.9995392 L16,53.9995392 C16,54.3605392 16.194,54.6935392 16.508,54.8705392 L39.508,67.8705392 C39.66,67.9575392 39.83,67.9995392 40,67.9995392 C40.17,67.9995392 40.34,67.9575392 40.492,67.8705392 L63.492,54.8705392 C63.806,54.6935392 64,54.3605392 64,53.9995392 L64,25.9995392 C64,25.6425392 63.81,25.3125392 63.5,25.1335392 L63.5,25.1335392 Z M51,46.6395392 L41,52.4135392 L41,40.6185392 L51,35.6185392 L51,46.6395392 Z M40.295,38.7345392 L30.584,33.1225392 L39.977,28.1445392 L49.899,33.9325392 L40.295,38.7345392 Z M39,52.4135392 L29,46.6395392 L29,34.5165392 L39,40.2955392 L39,52.4135392 Z M52.504,33.1365392 L40.504,26.1365392 C40.204,25.9605392 39.837,25.9545392 39.531,26.1165392 L27.531,32.4765392 C27.204,32.6505392 27,32.9905392 27,33.3605392 L27,47.2165392 C27,47.5745392 27.19,47.9045392 27.5,48.0835392 L39.5,55.0115392 C39.654,55.1005392 39.827,55.1455392 40,55.1455392 C40.173,55.1455392 40.346,55.1005392 40.5,55.0115392 L52.5,48.0835392 C52.81,47.9045392 53,47.5745392 53,47.2165392 L53,33.9995392 C53,33.6445392 52.812,33.3155392 52.504,33.1365392 L52.504,33.1365392 Z" id="AWS-Tools-and-SDK_Icon_64_Squid" fill="#FFFFFF"></path>
    </g>
</svg>

<svg xmlns="http://www.w3.org/2000/svg" width="80" height="80"><defs><linearGradient id="a" x1="0%" x2="100%" y1="100%" y2="0%"><stop offset="0%" stop-color="#2E27AD"/><stop offset="100%" stop-color="#527FFF"/></linearGradient></defs><g fill="none" fill-rule="evenodd"><path fill="url(#a)" d="M0 0h80v80H0z"/><path fill="#FFF" d="m62 53.417-21 11.87V57h-2v8.287l-21-11.87V27.805l6.47 4.044 1.06-1.697-6.559-4.1L40.479 14.15l20.493 11.835-7.457 4.142.97 1.749L62 27.7v25.717Zm1.5-28.283-22.511-13a1.003 1.003 0 0 0-.984-.01l-23.489 13A1 1 0 0 0 16 26v28a1 1 0 0 0 .508.87l23 13A.989.989 0 0 0 40 68c.17 0 .34-.042.492-.13l23-13A1 1 0 0 0 64 54V26a1 1 0 0 0-.5-.866ZM51 46.64l-10 5.774V40.619l10-5v11.02Zm-10.705-7.905-9.711-5.612 9.393-4.978 9.922 5.788-9.604 4.802ZM39 52.414 29 46.64V34.517l10 5.779v12.118Zm13.504-19.277-12-7a.997.997 0 0 0-.973-.02l-12 6.36a1.001 1.001 0 0 0-.531.884v13.856a1 1 0 0 0 .5.867l12 6.928a1 1 0 0 0 1 0l12-6.928a1 1 0 0 0 .5-.867V34a.998.998 0 0 0-.496-.863Z"/></g></svg>
